!!!COM: Roccia, Dattilo
!!!CDT:
!!!PTL: Il secondo libro de madrigali a cinque voci
!!!PPP: Naples
!!!PPR: Vitale
!!!PDT: 1603
!!!PUB-format:
!!!RISM: R 1807
!!!rime: 47
!!!OTL:	Non è questa la mano
!!!AGN: Madrigal
!!!SCT: Trm0047r
!!!SCA: Trm0047r
!!!original-voices: 5
!!!extant-voices: 1
!!!complete: N
!!!final: (D)G
**kern	**text
*part1	*part1
*staff1	*staff1
*I"Quinto	*
*I'V	*
*oclefC1	*
*clefG2	*
*k[]	*
*omet(C)	*
*M4/2	*
=1	=1
!!LO:TX:a:t=Prima parte.
2r	.
2b	Non
2a	è
[2cc	que-
=2	=2
4cc]	.
4cc	-sta
2dd	la
2ff	ma-
2ee	-no
=3	=3
4r	.
4cc	Che
4.cc	tan-
8dd	-t'e
4cc#X	sì
4b	mor-
2cc#X	-ta-
=4	=4
4dd	-li,
4dd	Che
4.dd	tan-
8b	-t'e
4dd	sì
4ee	mor-
2dd	-ta-
=5	=5
4dd	-li,
8b	A-
8b	-ven-
4b	-tò
8cc	nel
8b	mio
2cc	cor
4r	.
4cc	fiam-
=6	=6
4.b	-mel-
16a	.
16g	-l'e
4a	stra-
8g	-li?,
8g	Non
2g	è
[2a	que-
=7	=7
4a]	.
4a	-sta
2g	la
2g	ma-
2f#X	-no
=8	=8
4a	Che
4.a	tan-
8b-X	-t'e
8a	sì
8g	mor-
1a	-ta-
=9	=9
4g	-li,
4g	<Che
4.g	tan-
8e	-t'e
4g	sì
4a	mor-
2g	-ta-
=10	=10
4g	-li>
8g	A-
8g	-ven-
4g	-tò
8a	nel
8g	mio
1a	cor
=11	=11
2r	.
4r	.
4a	fiam-
2.cc	-mel-
8bL	.
8aJ	.
=12	=12
4b	.
4g	-l'e
1a	stra-
4g#X	-li,
8b	A-
8b	-ven-
=13	=13
4b	-tò
8cc	nel
8b	mio
2cc	cor
2r	.
4r	.
4cc	fiam-
=14	=14
8eeL	-mel-
16dd	.
16cc	.
8ddJ	.
8bJL	-l'e
1cc	stra-
2b	-li?
=15	=15
2f#X	Ec-
4f#i	-co
4f#i	che
2g	pur
2e	si
=16	=16
4d	tro-
8d	-va,
8d	che
2.e	pur
8d#X	si
8c#X	tro-
2d#X	.
=17	=17
2e	-va
8r	.
8ee	Fra
8cc	le
8b	mie
8a	man,
8e	Fra
8f	le
8g	mie
4a	man
4a	ri-
=18	=18
1b-X	-stret-
[1al	-ta.
=19	=19
!!LO:TX:a:t=Seconda parte.
2a]	Né
4g	for-
4b	-z'od
2a	ar-
2g	-te
=21	=21
4r	.
8f	per
8g	fug-
8a	-gir
8f	li
4b-i	gio-
4a	-va,
4f	Né
4g	for-
4a	-z'od
=22	=22
2f	ar-
4e	-te
8a	per
8g	fug-
8f	-gir
8g	li
4a	gio-
8g	-va,
16a	per
16b	fug-
8cc	-gir
8a	li
=23	=23
2dd	gio-
4dd	-va,
4dd	Né
2.cc	for-
4a	-z'od
=24	=24
4b	ar-
8g	-te
8a	per
4b	fug-
2dd	-gir
4cc	li
2b	gio-
=25	=25
2a	-va,
4r	.
4a	Né
2.ee	tien
4dd	fa-
=26	=26
4.dd	-c'o
8ee	sa-
2ff	-et-
1ee	-ta,
=27	=27
1r	.
2r	.
4r	.
4b	Né
=28	=28
2cc	tien
1cc	fa-
8b	-c'o
8a	sa-
4g	-et-
=29	=29
2dd	-ta
2r	.
4r	.
8a	Che
8a	da
[2a	me
=30	=30
4a]	.
8g#X	la
8f#X	di-
2g#X	-fen-
4a	-da,
8cc	<Che
8cc	da
[2cc	me
=31	=31
4cc]	.
8b	la
8a	di-
2b	-fen-
1e	-da.>
=32	=32
4a	Giu-
4a	-st'è
2a	ben
4a	ch'io
4b	ne
2cc	pren-
=33	=33
4cc	-da,
4cc	A-
8b	-mor,
8cc	qual-
8a	-che
8b	ven-
2g#X	-det-
2g#i	-ta,
=34	=34
4g#X	Giu-
4g#i	-st'è
2g#i	ben
4a	ch'io
4a	ne
2b	pren-
=35	=35
4b	-da,
4b	A-
8a	-mor,
8b	qual-
8g	-che
8a	ven-
2f#X	-det-
2f#i	-ta,
=36	=36
4f#X	E
4f#i	se
4g	pia-
8fnXi	-ghe
8g	mi
4a	dié
2a	ba-
8a	-ci
8a	le
=37	=37
2a	ren-
2a	-da,
4a	E
4a	se
4b	pia-
8a	-ghe
8b	mi
=38	=38
4cc	dié
2cc	ba-
8cc	-ci
8cc	le
2cc	ren-
4cc	-da,
[4f	ba-
=39	=39
4f]	.
8g	-ci
8g	le
2f#X	ren-
1gl	-da.
==	==
*-	*-
!!!RDF**kern: i = editorial accidental
!!!RDF**kern: l = terminal long
!!!ENC: Emiliano Ricciardi
!!!END: 2017/11
!!!EED: Deutsch, Catherine
!!!EEV: 2018/07/09
!!!YEC: Copyright 2018 Emiliano Ricciardi, All Rights Reserved
!!!ONB: Translated from MusicXML on 2018/07/09 and edited by Craig Stuart Sapp
!!@@BEGIN:	VERSEDATA
!!@SOLERTI:	47
!!@CATALOGNUM:	Trm0047
!!@LAST_MODIFIED: 2020/07/12
!!@TITLE:		Non è questa la mano
!!@GENRE:		madrigale/ballata
!!@MANUSRC:	Amz, Brn, C, E<sub>1</sub>, F<sub>2</sub>, I<sub>3</sub>, M<sub>7</sub>, P<sub>4</sub>, Tr<sub>2</sub>, V<sub>8</sub>, V<sub>13/E1</sub>
!!@PRINTSRC:	8, 9, 11, 12, 13, 15, 20, 24, 29, 33, 67, 145
!!@@BEGIN:	VERSES
!!@ABOUTIT:	Ballando con la sua donna desidera di fare amorosa vendetta de la sua mano ch’egli teneva stretta.
!!@ABOUTEN:	Dancing with his lady, he desires to take amorous revenge on the hand he held tight.
!!@EDITOR:	Solerti, Angelo
!!@EDITION_TITLE: Le Rime di Torquato Tasso
!!@EDITION_LOC:	Bologna
!!@EDITION_PUB:	Romagnoli-Dall’Acqua
!!@EDITION_DATE:  1898-1902
!!@EDITION_VOL:	2
!!@EDITION_PAGE:  71
!!@TRANSLATOR:	Emiliano Ricciardi and Amyrose McCue Gill
!!@VERSE:
!!	Non è questa la mano
!!	Che tante e sì mortali
!!	Avventò nel mio cor fiammelle e strali?
!!	Ecco che pur si trova
!!	Fra le mie man ristretta
!!	Né forza od arte per fuggir le giova,
!!	Né tien face o saetta
!!	Che da me la difenda.
!!	Giusto è ben ch'io ne prenda,
!!	Amor, qualche vendetta,
!!	E se piaghe mi diè baci le renda.
!!@TVERSE:
!!	Is this not the hand
!!	That so many and truly fatal
!!	Flames and arrows hurled at my heart?
!!	Yet here it is, to be found
!!	Held fast between my hands,
!!	Neither strength nor craft can help it escape,
!!	Nor does it hold a torch or a spear
!!	To defend her against me.
!!	It is just that I take,
!!	Love, some kind of revenge,
!!	And if she gave me wounds, may I give her kisses.
!!@@END:		VERSES
!!@OTHER_CRIT_ED:   Torquato Tasso, <i>Rime d’amore (secondo il codice
!!		Chigiano L VIII 302)</i>, eds. Franco Gavazzeni and
!!		Vercingetorige Martignone, vol. 4 of <i>Edizione
!!		Nazionale delle opere di Torquato Tasso</i>
!!		(Alessandria: Edizioni Dell’Orso, 2004), 34.
!!@ATTRIBUTION_ABOUT:	Secure
!!		<br>
!!		Among other authoritative sources (see Literary
!!		Sources), this poem appears in the autograph Chigiano
!!		L.VIII.302 (Biblioteca Vaticana, Rome), compiled
!!		around 1584&ndash;85.
!!@DATING:	Before 1579
!!		<br>
!!		Although Solerti dates this poem to the early 1560s,
!!		there is no hard evidence to support this dating.
!!		The earliest written testimony of “Non è questa la
!!		mano” is Benedetto Pallavicino’s musical setting,
!!		published in 1579 (Trm0047a).
!!@DEDICATEE:	Bendidio, Lucrezia
!!@DEDICATEE_INFO:
!!		In the autograph Chigiano L.VIII.302 (Biblioteca
!!		Vaticana, Rome), this poem appears among those
!!		addressed to Tasso’s <i>primo amore</i> (first love),
!!		identified as the Ferrarese singer and noblewoman
!!		<a target="_new" href="http://www.treccani.it/enciclopedia/lucrezia-bendidio_%28Dizionario-Biografico%29">Lucrezia Bendidio</a>
!!		(1547&ndash;after 1584). The poem itself, however, does not mention Lucrezia.
!!		As [Anthony Newcomb] {footnote: Anthony Newcomb, “The Ballata and the ‘Free’ Madrigal in
!!		the Second Half of the Sixteenth Century,” Journal
!!		of the American Musicological Society, vol. 63, no.
!!		3 (Fall 2010): 433&ndash;34.} has pointed out, this poem belongs to the
!!		hybrid genre of the ballata-madrigale.  More
!!		specifically, the opening tercet recalls the
!!		<i>ripresa</i> of a ballata, the central section
!!		the <i>piedi</i> (two pairs of <i>settenarii</i>
!!		separated by an <i>endecasillabo</i>), and the final
!!		tercet the <i>volta</i>. The poem is extremely rich
!!		of references to <i>topoi</i> that resonated with
!!		the culture of the time, such as courtly dance and
!!		the female hand–the latter is especially common in
!!		late sixteenth-century lyric poetry (see <i>Rime</i>
!!		315, 571, and 862). Counting 23 settings (see Musical
!!		Settings), “Non è questa la mano” is second only
!!		to “Ardi e gela a tua voglia” (<i>Rime</i> 418),
!!		whose musical fortune, however, is tied to that of
!!		Guarini’s <i>proposta</i> “Ardo sì, ma non t’amo.”
!!@@END:		VERSEDATA
!!@@BEGIN:	SETTING
!!@CATALOGNUM:	Trm0047r
!!@RIMETITLE:	Non è questa la mano
!!@SOLERTI:	47
!!@COMPOSER:	Roccia, Dattilo
!!@PRINCEPSTITLE:	Il secondo libro de madrigali a cinque voci
!!@PRINCEPSLOC:	Napoli
!!@NORMLOC:	Naples
!!@NORMPUB:	Vitale
!!@NORMPUBSHORT:	Vitale
!!@PRINCEPSPUB:	Vitale
!!@PRINCEPSYEAR:	1603
!!@PRINCEPSRISM:	R 1807
!!@REPRINTS:	
!!@OVOICES:	5
!!@EXTANTVOICES:	1
!!@PARTBOOKS:	
!!@EXTPARTBOOKS:	
!!@OCLEFS:	C1
!!@OMENSURATION:	C
!!@OKEYSIG:	-
!!@FINAL:	(D)G
!!@TIMPEDITOR:	Deutsch, Catherine
!!@NOTE:		
!!@@END:		SETTING
